X: 30409
T: Old Stories
R: waltz
M: 3/4
K: Edorian
E3FG2|FA3F2|E2G2A2|B6|E3FG2|FE3D2|E6-|E6|
E3FG2|FA3F2|G2F2E2|D6|B3AG2|FE3D2|E6-|E2G2A2|
B3AB2|cd3e2|d2c2B2|A6|E3FG2|FG3A2|B6-|B2G2A2|
B3AB2|cd3c|BA3G2|F4D2|E3FG2|FE3D2|E6-|E2||

